icons/tailwindcss/tailwindcss-original-wordmark.svg

<?xml version="1.0" encoding="UTF-8"?>
<svg xmlns="http://www.w3.org/2000/svg" xmlns:xlink="http://www.w3.org/1999/xlink" width="128pt" height="128pt" viewBox="0 0 128 128" version="1.1">
<defs>
<linearGradient id="linear0" gradientUnits="userSpaceOnUse" x1="2.2099" y1="511.5958" x2="3.2105" y2="511.5958" gradientTransform="matrix(27.167575,5.6391,-9.3985,16.30055,4747.4873,-8290.642575)">
<stop offset="0" style="stop-color:rgb(13.333333%,59.607843%,74.117647%);stop-opacity:1;"/>
<stop offset="1" style="stop-color:rgb(5.490196%,84.313725%,70.980392%);stop-opacity:1;"/>
</linearGradient>
</defs>
<g id="surface1">
<path style=" stroke:none;fill-rule:nonzero;fill:url(#linear0);" d="M 13.226562 56.074219 C 9.699219 56.074219 7.5 57.851562 6.625 61.375 C 7.949219 59.601562 9.5 58.949219 11.25 59.398438 C 12.25 59.648438 12.976562 60.375 13.773438 61.199219 C 15.074219 62.523438 16.574219 64.050781 19.851562 64.050781 C 23.375 64.050781 25.574219 62.273438 26.449219 58.75 C 25.125 60.523438 23.574219 61.175781 21.824219 60.726562 C 20.824219 60.476562 20.101562 59.75 19.300781 58.925781 C 18 57.601562 16.5 56.074219 13.226562 56.074219 Z M 6.601562 64 C 3.074219 64 0.875 65.773438 0 69.300781 C 1.324219 67.523438 2.875 66.875 4.625 67.324219 C 5.625 67.574219 6.351562 68.300781 7.148438 69.125 C 8.449219 70.449219 9.949219 71.976562 13.226562 71.976562 C 16.75 71.976562 18.949219 70.199219 19.824219 66.675781 C 18.5 68.449219 16.949219 69.101562 15.199219 68.648438 C 14.199219 68.398438 13.476562 67.675781 12.675781 66.851562 C 11.398438 65.523438 9.898438 64 6.601562 64 Z M 6.601562 64 "/>
<path style=" stroke:none;fill-rule:nonzero;fill:rgb(17.647059%,21.568627%,28.235294%);fill-opacity:1;" d="M 39.675781 62.75 L 37.375 62.75 L 37.375 67.226562 C 37.375 68.425781 38.148438 68.398438 39.675781 68.324219 L 39.675781 70.125 C 36.574219 70.5 35.351562 69.648438 35.351562 67.226562 L 35.351562 62.75 L 33.648438 62.75 L 33.648438 60.824219 L 35.351562 60.824219 L 35.351562 58.324219 L 37.351562 57.726562 L 37.351562 60.824219 L 39.648438 60.824219 L 39.648438 62.75 Z M 48.476562 60.824219 L 50.476562 60.824219 L 50.476562 70.125 L 48.476562 70.125 L 48.476562 68.773438 C 47.773438 69.75 46.675781 70.351562 45.226562 70.351562 C 42.699219 70.351562 40.601562 68.199219 40.601562 65.449219 C 40.601562 62.675781 42.699219 60.550781 45.226562 60.550781 C 46.675781 60.550781 47.773438 61.148438 48.476562 62.125 Z M 45.523438 68.449219 C 47.199219 68.449219 48.476562 67.199219 48.476562 65.476562 C 48.476562 63.75 47.199219 62.5 45.523438 62.5 C 43.851562 62.5 42.574219 63.75 42.574219 65.476562 C 42.601562 67.199219 43.851562 68.449219 45.523438 68.449219 Z M 53.824219 59.425781 C 53.125 59.425781 52.550781 58.824219 52.550781 58.148438 C 52.550781 57.449219 53.125 56.875 53.824219 56.875 C 54.523438 56.875 55.101562 57.449219 55.101562 58.148438 C 55.125 58.824219 54.523438 59.425781 53.824219 59.425781 Z M 52.824219 70.125 L 52.824219 60.824219 L 54.824219 60.824219 L 54.824219 70.125 Z M 57.148438 70.125 L 57.148438 56.550781 L 59.148438 56.550781 L 59.148438 70.125 Z M 72.226562 60.824219 L 74.351562 60.824219 L 71.425781 70.125 L 69.449219 70.125 L 67.523438 63.851562 L 65.574219 70.125 L 63.601562 70.125 L 60.675781 60.824219 L 62.800781 60.824219 L 64.601562 67.25 L 66.550781 60.824219 L 68.476562 60.824219 L 70.398438 67.25 Z M 76.824219 59.425781 C 76.125 59.425781 75.550781 58.824219 75.550781 58.148438 C 75.550781 57.449219 76.125 56.875 76.824219 56.875 C 77.523438 56.875 78.101562 57.449219 78.101562 58.148438 C 78.125 58.824219 77.550781 59.425781 76.824219 59.425781 Z M 75.824219 70.125 L 75.824219 60.824219 L 77.824219 60.824219 L 77.824219 70.125 Z M 85.050781 60.574219 C 87.125 60.574219 88.625 62 88.625 64.398438 L 88.625 70.125 L 86.625 70.125 L 86.625 64.625 C 86.625 63.199219 85.800781 62.476562 84.550781 62.476562 C 83.226562 62.476562 82.175781 63.25 82.175781 65.148438 L 82.175781 70.148438 L 80.175781 70.148438 L 80.175781 60.851562 L 82.175781 60.851562 L 82.175781 62.050781 C 82.800781 61.050781 83.800781 60.574219 85.050781 60.574219 Z M 98.175781 57.101562 L 100.175781 57.101562 L 100.175781 70.125 L 98.175781 70.125 L 98.175781 68.773438 C 97.476562 69.75 96.375 70.351562 94.925781 70.351562 C 92.398438 70.351562 90.300781 68.199219 90.300781 65.449219 C 90.300781 62.675781 92.398438 60.550781 94.925781 60.550781 C 96.375 60.550781 97.476562 61.148438 98.175781 62.125 Z M 95.226562 68.449219 C 96.898438 68.449219 98.175781 67.199219 98.175781 65.476562 C 98.175781 63.75 96.898438 62.5 95.226562 62.5 C 93.550781 62.5 92.273438 63.75 92.273438 65.476562 C 92.273438 67.199219 93.550781 68.449219 95.226562 68.449219 Z M 106.898438 70.375 C 104.101562 70.375 101.976562 68.226562 101.976562 65.476562 C 101.976562 62.699219 104.074219 60.574219 106.898438 60.574219 C 108.726562 60.574219 110.300781 61.523438 111.050781 62.976562 L 109.324219 63.976562 C 108.925781 63.101562 108 62.550781 106.875 62.550781 C 105.226562 62.550781 104 63.800781 104 65.476562 C 104 67.148438 105.25 68.398438 106.875 68.398438 C 108 68.398438 108.898438 67.824219 109.351562 66.976562 L 111.074219 67.949219 C 110.324219 69.425781 108.726562 70.375 106.898438 70.375 Z M 114.425781 63.375 C 114.425781 65.074219 119.425781 64.050781 119.425781 67.5 C 119.425781 69.351562 117.800781 70.375 115.800781 70.375 C 113.949219 70.375 112.601562 69.523438 112 68.199219 L 113.726562 67.199219 C 114.023438 68.050781 114.773438 68.550781 115.800781 68.550781 C 116.699219 68.550781 117.375 68.25 117.375 67.5 C 117.375 65.851562 112.375 66.773438 112.375 63.449219 C 112.375 61.699219 113.875 60.601562 115.773438 60.601562 C 117.300781 60.601562 118.574219 61.300781 119.226562 62.523438 L 117.523438 63.476562 C 117.199219 62.75 116.550781 62.425781 115.773438 62.425781 C 115.050781 62.398438 114.425781 62.726562 114.425781 63.375 Z M 123 63.375 C 123 65.074219 128 64.050781 128 67.5 C 128 69.351562 126.375 70.375 124.375 70.375 C 122.523438 70.375 121.175781 69.523438 120.574219 68.199219 L 122.300781 67.199219 C 122.601562 68.050781 123.351562 68.550781 124.375 68.550781 C 125.273438 68.550781 125.949219 68.25 125.949219 67.5 C 125.949219 65.851562 120.949219 66.773438 120.949219 63.449219 C 120.949219 61.699219 122.449219 60.601562 124.351562 60.601562 C 125.875 60.601562 127.148438 61.300781 127.800781 62.523438 L 126.101562 63.476562 C 125.773438 62.75 125.125 62.425781 124.351562 62.425781 C 123.625 62.398438 123 62.726562 123 63.375 Z M 123 63.375 "/>
</g>
</svg>

<?xml version="1.0" encoding="UTF-8"?>
<svg xmlns="http://www.w3.org/2000/svg" width="128" height="128" viewBox="0 0 128 128"><defs><linearGradient id="a" gradientUnits="userSpaceOnUse" x1="2.21" y1="511.596" x2="3.211" y2="511.596" gradientTransform="matrix(27.16757 5.6391 -9.3985 16.30055 4747.487 -8290.643)"><stop offset="0" style="stop-color:#2298bd;stop-opacity:1"/><stop offset="1" style="stop-color:#0ed7b5;stop-opacity:1"/></linearGradient></defs><path style="stroke:none;fill-rule:nonzero;fill:url(#a)" d="M13.227 56.074c-3.528 0-5.727 1.778-6.602 5.301 1.324-1.773 2.875-2.426 4.625-1.977 1 .25 1.727.977 2.523 1.801 1.301 1.324 2.801 2.852 6.079 2.852 3.523 0 5.722-1.778 6.597-5.301-1.324 1.773-2.875 2.426-4.625 1.977-1-.25-1.722-.977-2.523-1.801-1.301-1.324-2.801-2.852-6.074-2.852zM6.602 64C3.074 64 .875 65.773 0 69.3c1.324-1.777 2.875-2.425 4.625-1.976 1 .25 1.727.977 2.523 1.801 1.301 1.324 2.801 2.852 6.079 2.852 3.523 0 5.722-1.778 6.597-5.301-1.324 1.773-2.875 2.426-4.625 1.972-1-.25-1.722-.972-2.523-1.796C11.398 65.523 9.898 64 6.602 64zm0 0"/><path style="stroke:none;fill-rule:nonzero;fill:#2d3748;fill-opacity:1" d="M39.676 62.75h-2.301v4.477c0 1.199.773 1.171 2.3 1.097v1.801c-3.1.375-4.323-.477-4.323-2.898V62.75h-1.704v-1.926h1.704v-2.5l2-.597v3.097h2.296v1.926zm8.8-1.926h2v9.301h-2v-1.352c-.703.977-1.8 1.579-3.25 1.579-2.527 0-4.624-2.153-4.624-4.903 0-2.773 2.097-4.898 4.625-4.898 1.449 0 2.546.597 3.25 1.574zm-2.953 7.625c1.676 0 2.954-1.25 2.954-2.972 0-1.727-1.278-2.977-2.954-2.977-1.671 0-2.949 1.25-2.949 2.977.028 1.722 1.278 2.972 2.95 2.972zm8.301-9.023c-.699 0-1.273-.602-1.273-1.278 0-.699.574-1.273 1.273-1.273.7 0 1.278.574 1.278 1.273.023.676-.579 1.278-1.278 1.278zm-1 10.699v-9.3h2v9.3zm4.324 0V56.551h2v13.574zm15.079-9.3h2.125l-2.926 9.3h-1.977l-1.926-6.273-1.949 6.273h-1.972l-2.926-9.3H62.8l1.8 6.425 1.95-6.426h1.926l1.921 6.426zm4.597-1.4c-.699 0-1.273-.6-1.273-1.277 0-.699.574-1.273 1.273-1.273.7 0 1.278.574 1.278 1.273.023.676-.551 1.278-1.278 1.278zm-1 10.7v-9.3h2v9.3zm9.227-9.55c2.074 0 3.574 1.425 3.574 3.823v5.727h-2v-5.5c0-1.426-.824-2.148-2.074-2.148-1.324 0-2.375.773-2.375 2.671v5h-2v-9.296h2v1.199c.625-1 1.625-1.477 2.875-1.477zm13.125-3.473h2v13.023h-2v-1.352c-.7.977-1.801 1.579-3.25 1.579-2.528 0-4.625-2.153-4.625-4.903 0-2.773 2.097-4.898 4.625-4.898 1.449 0 2.55.597 3.25 1.574zm-2.95 11.347c1.672 0 2.95-1.25 2.95-2.972 0-1.727-1.278-2.977-2.95-2.977-1.675 0-2.953 1.25-2.953 2.977 0 1.722 1.278 2.972 2.954 2.972zm11.672 1.926c-2.796 0-4.921-2.148-4.921-4.898 0-2.778 2.097-4.903 4.921-4.903 1.829 0 3.403.95 4.153 2.403l-1.727 1c-.398-.875-1.324-1.426-2.449-1.426-1.648 0-2.875 1.25-2.875 2.926 0 1.671 1.25 2.921 2.875 2.921 1.125 0 2.023-.574 2.477-1.421l1.722.972c-.75 1.477-2.347 2.426-4.176 2.426zm7.528-7c0 1.7 5 .676 5 4.125 0 1.852-1.625 2.875-3.625 2.875-1.852 0-3.2-.852-3.801-2.176l1.727-1c.296.852 1.046 1.352 2.074 1.352.898 0 1.574-.301 1.574-1.051 0-1.648-5-.727-5-4.05 0-1.75 1.5-2.848 3.398-2.848 1.528 0 2.801.699 3.454 1.921l-1.704.954c-.324-.727-.972-1.051-1.75-1.051-.722-.028-1.347.3-1.347.949zm8.574 0c0 1.7 5 .676 5 4.125 0 1.852-1.625 2.875-3.625 2.875-1.852 0-3.2-.852-3.8-2.176l1.726-1c.3.852 1.05 1.352 2.074 1.352.898 0 1.574-.301 1.574-1.051 0-1.648-5-.727-5-4.05 0-1.75 1.5-2.848 3.403-2.848 1.523 0 2.796.699 3.449 1.921l-1.7.954c-.328-.727-.976-1.051-1.75-1.051-.726-.028-1.351.3-1.351.949zm0 0"/></svg>
